!!!COM: Bartok, Bela
!!!OTL: Children's Song
!!!ONM: 106
!!!OPR: Mikrokosmos, Vol. IV
!! Boosey & Hawkes Ltd. (London) 1955, copyright 1940 p.20
**kern	**kern	**kern
*M2/4	*M2/4	*M2/4
=1	=1	=1
2r	[{2F#	8r
.	.	{8c
.	.	8f
.	.	8c
=2	=2	=2
2r	8F#]	[2d
.	8E	.
.	8A	.
.	8E	.
=3	=3	=3
2r	[2F#	8d]
.	.	8c
.	.	8f
.	.	8e
=4	=4	=4
2r	8F#]	8d
.	8E	8c
.	8A	8f
.	8E	8c
=5	=5	=5
2r	2F#	4d
.	.	8e
.	.	8f
=6	=6	=6
2r	2G#	8g
.	.	8f
.	.	8e
.	.	8d}
=7	=7	=7
2r	[2A^	2r
=8	=8	=8
2r	2A_	2r
=9	=9	=9
2r	2A_}	{8f#
.	.	8g#
.	.	8a
.	.	8f#
=10	=10	=10
{4E	2A_	2g#}
8Fn	.	.
8E	.	.
=11	=11	=11
2D}	2A_	{8f#
.	.	8g#
.	.	8a
.	.	8f#
=12	=12	=12
{8E	2A_	4g#
8F	.	.
8Gn	.	8b
8E	.	8g#}
=13	=13	=13
4D	2A]	{8f#
.	.	8a
8E	.	8g#
8D}	.	8f#
=14	=14	=14
8r	8r	2e}
{8G	[4.G	.
8D	.	.
8C	.	.
=15	=15	=15
4D	2G_	{8f#
.	.	8a
8E	.	8g#
8D}	.	8f#
=16	=16	=16
8r	2G_	4e
{8C	.	.
8F	.	8a
8C}	.	8e}
=17	=17	=17
[2D#*	2G_	[{2f#*
=18	=18	=18
2D#]	2G]	4.f#]
.	.	8e
=19	=19	=19
2r	8r	8f#}
.	{8c#	8r
.	8f#	4r
.	8c#	.
=20	=20	=20
2r	[2d#	8r
.	.	{8a
.	.	8dd
.	.	8a
=21	=21	=21
2r	8d#}]	4.b
.	{8c#	.
.	8d#	.
.	8e#	8cc#}
=22	=22	=22
2r	4f#	8r
.	.	{8a
.	4g#	8b
.	.	8cc#
=23	=23	=23
2r	[2fn	4ee
.	.	8dd
.	.	8cc#
=24	=24	=24
2r	2f}]	8b
.	.	8dd
.	.	4a}
=25	=25	=25
2r	[2e^	2r
=26	=26	=26
2r	2e]	2r
=27	=27	=27
{8f#	4r	{2dd
8g#	.	.
8a	[4a	.
8f#	.	.
=28	=28	=28
2g#}	2a_	8ee
.	.	8ff
.	.	8ee
.	.	8gg}
=29	=29	=29
{8f#	4a]	{4dd
8g#	.	.
8a	[4a	8cc
8f#	.	8dd
=30	=30	=30
4g#	2a_	8ee
.	.	8gg
8b	.	8ff
8g#}	.	8ee
=31	=31	=31
{8f#	8a]	8dd
8a	[4.a	8cc
8g#	.	[4dd
8f#	.	.
=32	=32	=32
2e}	2a_	8dd}]
.	.	8cc
.	.	8gg
.	.	{8cc
=33	=33	=33
8r	2a_	4ffn
{8f#	.	.
8g#	.	8ee
8f#	.	8dd}
=34	=34	=34
4e	2a]	8r
.	.	{8gg
8f#	.	8ffn
8g#	.	8cc
=35	=35	=35
2a}	2r	[2a
=36	=36	=36
2r	2a	2a}]
=37	=37	=37
2r	[{2Fn	8r
.	.	{8f#
.	.	8a
.	.	8b
=38	=38	=38
2r	8F]	[2a
.	8G	.
.	8F	.
.	8D	.
=39	=39	=39
2r	4.Fn	8a]
.	.	8f#
.	.	8a
.	8G	8b
=40	=40	=40
2r	8F	8a
.	8D	8f#
.	8C	8e
.	8G	8b
=41	=41	=41
2r	8Fn}	8a}
.	8r	8r
.	4r	{4e
=42	=42	=42
2r	{4E	4g#
.	4Gn	4b
=43	=43	=43
2r	[2F#	[2f#
=44	=44	=44
2r	2F#]	2f#]
==	==	==
*-	*-	*-
